X:1
T:Title
%%score ( 1 2 ) { 3 | 4 }
L:1/8
Q:1/4=87
M:6/8
K:Db
V:1 treble nm="Grand Piano, Soprano"
V:2 treble 
V:3 treble nm="Choir Pad, Step Out on the Promise"
V:4 bass 
V:1
 [DF][FA][_F=G] [=FA][Fd][Ac] | [GB][FA][_F=G] [_GB] [=FA]2 | [DF][CE][DF] [E=G][DB][CA] | %3
w: By~Silas~L.~Cox,~1912 * * * * *|||
 [D=G] [CA]2- [CA]2- [CA]/ z/ | [DF][FA]>[E=G] [FA][Ad]>[_Gc] | [Fd][Af]>[Ae] [Ad] [GB]2 | %6
w: |||
 [GB][FA]>[FA] [Fd][Ec][Fd] | [Ge] [Fd]2- [Fd]3 | .d3 z3 | [GB][FA][DF] [GB][FA]<[FA] | z3 z .B2 | %11
w: |||||
 [=Gd] [Ac]2- [Ac]2- [Ac]/ z/ | [DF]/[EG]/[FA][_F=G] [=FA][Ad][Gc] | [Fd]fe [Ad][GB]<[GB] | %14
w: |||
 [_FB][=FA][FA] [Fd][Ec][Fd] | [Ge] [Fd]2- [Fd]3- | [Fd]3 z3 |] %17
w: |||
V:2
 x6 | x6 | x6 | x6 | x6 | x6 | x6 | x6 | A/-[Ac]/[GB][F=A] [GB][Bd][_Ac] | x6 | %10
 A[GB][GB] [AB]=G-[Ge] | x6 | x6 | z A2 z3 | x6 | x6 | x6 |] %17
V:3
 A,DD DA,A, | DDD D D2 | A,A,=G, E,G,A, | B, A,2- A,2- A,/ z/ | A,[K:treble]D>D DA,>A, | %5
 A,D>C D D2 | DD>D D[K:bass]A,A, | A, A,2- A,3 | DDD DDD | DDA, DD<D | DDD =DED | G E2- E2- E/ z/ | %12
 A,DD D[K:bass]A,A, | A,DC[K:treble] DD<D | DDD D[K:bass] B,2 | A, A,2- A,3- | A,3 z3 |] %17
V:4
 D,D,D, D,D,D, | D,D,D, D, D,2 | D,E,E, z E,E, | E, A,,2- A,,2- A,,/ z/ | D,D,>D, D,F,>E, | %5
 D,D,>E, F, G,2 | G,A,>A, A,A,,A,, | A,, D,2- D,3 | F,G,G, G,G,G, | G, D,2 D,D,<D, | %10
 F,G,G, F, E,2 | E, A,2- A,2- A,/ z/ | D,D,D, D,F,E, | D,D,E, F,G,<G, | =G,A,A, A, A,,2 | %15
 A,, D,2- D,3- | D,3 z3 |] %17

